docs/img/icon1/comma_services5.svg

<svg width="244" height="178" viewBox="0 0 244 178" fill="none" xmlns="http://www.w3.org/2000/svg">
<path id="&#226;&#128;&#156;&#226;&#128;&#157;" d="M7.16544 14.9922L7.12135 15.0312L7.08214 15.075C3.45769 19.1267 1.74437 25.311 1.74437 33.4196L1.74437 82.0336C1.74436 110.427 9.63955 133.209 25.5216 150.269L25.5223 150.27C41.869 167.795 66.322 176.473 98.6875 176.473L218.14 176.473C226.28 176.473 232.332 174.569 236.001 170.502C240.095 166.855 242.014 160.838 242.014 152.745L242.014 25.212C242.014 17.0775 240.076 10.8753 236 6.82482C232.331 3.17865 226.282 1.4834 218.14 1.4834L124.103 1.48339C115.946 1.48339 109.726 3.18484 105.65 6.78466L105.606 6.8236L105.567 6.86745C101.942 10.9191 100.229 17.1034 100.229 25.212L100.229 93.0292L91.6982 93.0292C86.39 93.0292 82.2015 91.6171 79.0365 88.877C76.3287 86.172 74.9074 82.2586 74.9074 76.9828L74.9074 33.4196C74.9074 25.2851 72.9702 19.0829 68.8938 15.0324C65.2244 11.3862 59.1759 9.69096 51.0336 9.69096L25.6182 9.69096C17.461 9.69095 11.2411 11.3924 7.16544 14.9922Z" stroke="#232323" stroke-width="2"/>
</svg>

<svg width="244" height="178" fill="none" xmlns="http://www.w3.org/2000/svg"><path d="M7.165 14.992l-.044.04-.039.043C3.458 19.127 1.744 25.311 1.744 33.42v48.614c0 28.393 7.896 51.175 23.778 68.235v.001c16.347 17.525 40.8 26.203 73.166 26.203H218.14c8.14 0 14.192-1.904 17.861-5.971 4.094-3.647 6.013-9.664 6.013-17.757V25.212c0-8.134-1.938-14.337-6.014-18.387-3.669-3.646-9.718-5.342-17.86-5.342h-94.037c-8.157 0-14.377 1.702-18.453 5.302l-.044.039-.039.043c-3.625 4.052-5.338 10.236-5.338 18.345v67.817h-8.53c-5.309 0-9.498-1.412-12.662-4.152-2.708-2.705-4.13-6.618-4.13-11.894V33.42c0-8.135-1.937-14.337-6.013-18.388-3.67-3.646-9.718-5.341-17.86-5.341H25.618c-8.157 0-14.377 1.701-18.453 5.301z" stroke="#232323" stroke-width="2"/></svg>
